X:1
T:Gavotte in F Major
T:Gavotte in F Major
T:Notebooks for Anna Magdalena Bach BWV Anh. 131
T:Johann Sebastian Bach
T:Public Domain (PianoXML typeset)
C:Johann Sebastian Bach BWV Anh. 131
Z:Public Domain (PianoXML typeset)
%%score { 1 | 2 }
L:1/8
Q:1/4=100
M:4/4
K:F
V:1 treble nm="Piano" snm="Pno."
V:2 bass 
V:1
!f!"^Allegretto" c2 | f4 Te4 | f2 (A2 B2 c2 | A4 G2) c2 | A4 d4 | (=B2 AG g2) f2 | (e2 dc d2 c=B | %7
 c6) ::!mf! (EF | G6) A2 | B6 c2 | (A2 GF d2 BA | G6) c2 | .d4 .e4 | (f2 ed) c2 B2 | .A4 .G4 | %16
 F6 :| %17
V:2
 z2 | z2 F,2 C2 C,2 | A,2 F,2 G,2 E,2 | F,2 F,,2 C,2 z2 | F,4 D,4 | G,4 E,2 F,2 | G,4 G,,4 | %7
 C,2 G,,2 C,,2 :: z2 | z2 C,2 C,,4 | z2 C,2 C,,4 | F,4 B,,2 B,,2 | C,2 G,,2 C,,2 A,,2 | %13
 .B,,4 .G,,4 | A,,4 z2 B,,2 | .C,4 .C,,4 | F,,2 C,2 F,2 :| %17

